img/youtube.svg

<svg width="18" height="18" viewBox="0 0 18 18" fill="none" xmlns="http://www.w3.org/2000/svg">
<path d="M17.2984 1.54518C16.6487 0.447678 15.449 0 13.1581 0H4.84177C2.49834 0 1.27841 0.476555 0.631104 1.645C0 2.78425 0 4.46283 0 6.78603V11.214C0 15.7148 0.7488 18 4.84177 18H13.1581C15.1448 18 16.2458 17.605 16.958 16.6364C17.6884 15.6432 18 14.0216 18 11.214V6.78603C18 4.33602 17.9512 2.64754 17.2984 1.54518ZM11.5561 9.61137L7.77966 12.4158C7.69524 12.4785 7.60291 12.5096 7.5107 12.5096C7.4063 12.5096 7.30214 12.4697 7.20987 12.3903C7.03614 12.2408 6.93006 11.9732 6.93006 11.6846V6.09364C6.93006 5.80553 7.03585 5.53821 7.20924 5.38854C7.38267 5.23889 7.59838 5.22866 7.77832 5.36149L11.5548 8.14787C11.7469 8.28963 11.8675 8.57147 11.8678 8.87896C11.8681 9.18672 11.7479 9.46896 11.5561 9.61137Z" fill="#333333"/>
</svg>

<svg width="18" height="18" fill="none" xmlns="http://www.w3.org/2000/svg"><path d="M17.298 1.545C16.648.448 15.45 0 13.158 0H4.842C2.498 0 1.278.477.632 1.645 0 2.785 0 4.463 0 6.786v4.428C0 15.714.749 18 4.842 18h8.316c1.987 0 3.088-.395 3.8-1.364.73-.993 1.042-2.614 1.042-5.422V6.786c0-2.45-.049-4.138-.702-5.24zm-5.742 8.066L7.78 12.416a.449.449 0 01-.27.094.46.46 0 01-.3-.12c-.174-.15-.28-.417-.28-.705V6.094c0-.288.106-.556.28-.705a.435.435 0 01.568-.028l3.777 2.787c.192.142.313.423.313.731s-.12.59-.312.732z" fill="#333"/></svg>
